X:8
M:6/4
L:1/4
K:D
D2 | D E F D F G | [E4A4] D2 | D E F D F G | [E4A4] (d c) | B2 A2 d c | B2 A2 d2 | d A A G F G | [E4A4] [A2d2] | [Ad] [GA] [FA] G F G | A4 (G F) | E2 D2 (G F) | E2 D2 d c | B2 A2 d c | B2 A2 !sintro!G F | E6 | D4 !eintro!|]
